apps/common/main/resources/img/toolbar/2.5x/btn-hide-password.svg

<svg width="20" height="20" viewBox="0 0 20 20" fill="none" xmlns="http://www.w3.org/2000/svg">
<path d="M5.35359 15.3536L15.3536 5.35359L14.6465 4.64648L4.64648 14.6465L5.35359 15.3536Z" fill="black"/>
<path d="M9.99999 6C10.3211 6 10.6376 6.01766 10.9484 6.05195L10.0004 7C7.47348 7 5.31131 8.23092 4.15842 10C4.51938 10.5539 4.97924 11.055 5.51823 11.4821L4.80683 12.1935C4.05622 11.5801 3.43922 10.8356 3 10C4.24309 7.63505 6.91026 6 9.99999 6Z" fill="black"/>
<path d="M15.8415 10C14.6887 11.769 12.5271 12.9999 10.0004 13L9.05224 13.9481C9.36285 13.9824 9.67914 14 9.99999 14C13.0897 14 15.7569 12.3649 17 10C16.5608 9.16455 15.944 8.42018 15.1935 7.80681L14.4821 8.51821C15.021 8.94525 15.4807 9.44626 15.8415 10Z" fill="black"/>
</svg>

<svg xmlns="http://www.w3.org/2000/svg" width="20" height="20" fill="none"><path fill="#000" d="m5.354 15.354 10-10-.707-.708-10 10 .707.708ZM10 6c.321 0 .638.018.948.052L10 7c-2.527 0-4.689 1.23-5.842 3a6.255 6.255 0 0 0 1.36 1.482l-.711.712A7.125 7.125 0 0 1 3 10c1.243-2.365 3.91-4 7-4Zm5.841 4c-1.152 1.769-3.314 3-5.84 3l-.949.948c.31.034.627.052.948.052 3.09 0 5.757-1.635 7-4a7.126 7.126 0 0 0-1.806-2.193l-.712.711c.539.427.999.928 1.36 1.482Z"/></svg>
